X:1
T:Wer ist und wird genennt
T:Georg Vogler
T:Source : Catechismus---Würzburg---J.Volmari---1652. Editor : André Vierendeels (24/09/17).
T:Notes : Original clefs : C1, F4 Original note values have been halved Text Middle German
T:Wer ist und wird genennt
T:©
T:©
T:©
C:Georg Vogler
Z:©
%%score [ 1 2 ]
L:1/8
Q:1/4=120
M:2/2
K:C
V:1 treble nm="Soprano" snm="S"
V:2 bass nm="Bass" snm="B"
V:1
"^1)" A4 A2 A2 | G2 G2 F2 E2 | !fermata!D4 A4 | A2 G2 c2 A2 | F2 G2 !fermata!A4 | A4 A2 F2 | %6
w: Wer ist, und|wird ge- nennt ein|Christ, so|recht und gut Ca-|tho- lisch ist?|Der ist ein|
w: Bey was War-|zey- chen sed er-|kennt ob|man sich recht Ca-|tho- lisch nennt?|Wann man sich|
 G2 A2 F2 E2 | !fermata!D4 A4 | A2 G2 c2 A2 | F2 G2 !fermata!A4 | A4 c2 d2 | d2 e2 d2 ^c2 | %12
w: recht Ca- tho- lisch'r|Christ, wel-|cher nach dem er|tauf- fet ist.|Durch auss al-|les glaubt und be-|
w: ezich- net mit dem|Kreutz, Setzt|Irz- thumb Ket- ze-|ren be- seyts:|Meldt was die|Leh- rer al- le-|
 !fermata!d4 d4 | e2 d2 c2 B2 | A2 ^G2 !fermata!A4 | d4 c2 B2 | c2 A2 A2 G2 | !fermata!F4 A4 | %18
w: kennt, was|die Uhr- al- te|Kirch be- nennt,|die Rö- misch|und ca- tho- lisch|ist, ob-|
w: sampt ein-|drach- tig- lich im|gemein ver dampt,|und spricht: im|Na- men (wie du|weist) desz|
 _B2 A2 F2 G2 | F2 E2 !fermata!D4 |] %20
w: mans schon in der|Schrifft nit list.|
w: Vat- ters, Sohns und|heil- ge Geists.|
V:2
"^2)""^1)""^3)" A,,4 A,,2 D,2 | C,2 A,,2 D,2 A,,2 | !fermata!D,4 A,,4 | A,,2 E,2 C,2 F,2 | %4
w: Wer ist, und|wird ge- nennt ein|Christ, so|recht und gut Ca-|
w: Sag wie viel|seyn der Haupt- stück|wol, die|je- der bil- lich|
 D,2 E,2 !fermata!A,,4 | D,4 A,2 A,2 | G,2 C,2 D,2 A,,2 | !fermata!D,4 D,4 | C,2 G,2 A,2 E,2 | %9
w: tho- lisch ist?|Der ist ein|recht Ca- tho- lisch'r|Christ, wel|cher nach dem er|
w: wis- sen soll?|Fünff, Glaub, Hoff-|nung, Lieb, Sa- ca-|ment, Ge-|rech- tig- keit sey|
 F,2 E,2 !fermata!A,,4 | D,4 A,2 G,2 | F,2 C,2 D,2 A,,2 | !fermata!D,4 D,4 | C,2 G,2 A,2 E,2 | %14
w: tauf- fet ist,|Durch auss al-|les glaubt und be-|kennt, was|die Uhr- al- te|
w: uns be- nennt,|fünff sag ich,|se- hen in der|Zahl, wie|uns die Kirch lehrt|
 F,2 E,2 !fermata!A,,4 | D,4 A,,2 E,2 | A,,2 F,,2 F,,2 C,2 | !fermata!F,,4 F,,4 | %18
w: Kirch be- nennt,|die Rö- misch|und ca- tho- lisch|iest, ob-|
w: ü- ber- all,|durch wel- che|wir auff die- ser|Erdn, Gott|
 _B,,2 F,,2 F,,2 C,2 | D,2 A,,2 !fermata!D,4 |] %20
w: mans schon in der|Schrifft nit list.|
w: gfal- len, und jetzt|se- lig werdn.|

